packages/gestalt-icons-android/vr-theme/ic_vr_moon_gestalt.svg

<svg width="24" height="24" viewBox="0 0 24 24" fill="none" xmlns="http://www.w3.org/2000/svg">
<path fill-rule="evenodd" clip-rule="evenodd" d="M22.0928 18.4938C22.5316 17.8132 21.9004 16.9924 21.0906 16.9996C21.0605 16.9999 21.0302 17 21 17C15.4772 17 11 12.5228 11 7C11 4.96337 11.6088 3.06894 12.6544 1.48879C13.0589 0.877472 12.733 0 12 0C5.37258 0 0 5.37258 0 12C0 18.6274 5.37258 24 12 24C16.2347 24 19.957 21.8065 22.0928 18.4938ZM9 7C9 13.0372 13.4582 18.0331 19.2621 18.8751C17.4377 20.8017 14.8584 22 12 22C6.47715 22 2 17.5228 2 12C2 7.16245 5.435 3.12718 9.99897 2.20025C9.35643 3.67122 9 5.29547 9 7Z" fill="black"/>
<path d="M19.3 5H18.7L18.6132 5.37236C18.3539 6.48509 17.4851 7.35393 16.3724 7.61323L16 7.7V8.3L16.3724 8.38677C17.4851 8.64607 18.3539 9.51491 18.6132 10.6276L18.7 11H19.3L19.3868 10.6276C19.6461 9.51491 20.5149 8.64607 21.6276 8.38677L22 8.3V7.7L21.6276 7.61323C20.5149 7.35393 19.6461 6.48509 19.3868 5.37236L19.3 5Z" fill="black"/>
</svg>

<svg xmlns="http://www.w3.org/2000/svg" width="24" height="24"><path d="M22.1 18.5c.43-.69-.2-1.5-1-1.5H21a10 10 0 0 1-8.35-15.51C13.05.88 12.73 0 12 0a12 12 0 1 0 10.1 18.5M9 7a12 12 0 0 0 10.26 11.88A10 10 0 1 1 10 2.2c-.64 1.46-1 3.09-1 4.79m10.3-2h-.6l-.09.37a3 3 0 0 1-2.24 2.24l-.37.1v.6l.37.09a3 3 0 0 1 2.24 2.24l.09.37h.6l.09-.37a3 3 0 0 1 2.24-2.24L22 8.3v-.6l-.37-.09a3 3 0 0 1-2.24-2.24z"/></svg>
